documenti/definizione_di_prodotto/images/server/classes/db/raw_tw_hashtag.svg

<?xml version="1.0" encoding="UTF-8" standalone="no"?>
<svg
   xmlns:dc="http://purl.org/dc/elements/1.1/"
   xmlns:cc="http://creativecommons.org/ns#"
   xmlns:rdf="http://www.w3.org/1999/02/22-rdf-syntax-ns#"
   xmlns:svg="http://www.w3.org/2000/svg"
   xmlns="http://www.w3.org/2000/svg"
   xmlns:xlink="http://www.w3.org/1999/xlink"
   xmlns:sodipodi="http://sodipodi.sourceforge.net/DTD/sodipodi-0.dtd"
   xmlns:inkscape="http://www.inkscape.org/namespaces/inkscape"
   style="fill-opacity:1; color-rendering:auto; color-interpolation:auto; stroke:black; text-rendering:auto; stroke-linecap:square; stroke-miterlimit:10; stroke-opacity:1; shape-rendering:auto; fill:black; stroke-dasharray:none; font-weight:normal; stroke-width:1; font-family:'Dialog'; font-style:normal; stroke-linejoin:miter; font-size:12; stroke-dashoffset:0; image-rendering:auto;"
   width="880"
   height="666"
   id="svg2"
   version="1.1"
   inkscape:version="0.91 r13725"
   sodipodi:docname="raw_tw_hashtag.svg">
  <metadata
     id="metadata70">
    <rdf:RDF>
      <cc:Work
         rdf:about="">
        <dc:format>image/svg+xml</dc:format>
        <dc:type
           rdf:resource="http://purl.org/dc/dcmitype/StillImage" />
      </cc:Work>
    </rdf:RDF>
  </metadata>
  <sodipodi:namedview
     pagecolor="#ffffff"
     bordercolor="#666666"
     borderopacity="1"
     objecttolerance="10"
     gridtolerance="10"
     guidetolerance="10"
     inkscape:pageopacity="0"
     inkscape:pageshadow="2"
     inkscape:window-width="640"
     inkscape:window-height="480"
     id="namedview68"
     showgrid="false"
     inkscape:zoom="0.35435435"
     inkscape:cx="440"
     inkscape:cy="333"
     inkscape:window-x="408"
     inkscape:window-y="195"
     inkscape:window-maximized="0"
     inkscape:current-layer="svg2" />
  <!--Generated by the Batik Graphics2D SVG Generator-->
  <defs
     id="genericDefs">
    <linearGradient
       inkscape:collect="always"
       xlink:href="#linearGradient1"
       id="linearGradient3398"
       gradientUnits="userSpaceOnUse"
       spreadMethod="pad"
       x1="200"
       y1="117"
       x2="377"
       y2="175" />
    <linearGradient
       inkscape:collect="always"
       xlink:href="#linearGradient1"
       id="linearGradient3400"
       gradientUnits="userSpaceOnUse"
       spreadMethod="pad"
       x1="200"
       y1="117"
       x2="377"
       y2="175" />
    <linearGradient
       inkscape:collect="always"
       xlink:href="#linearGradient1"
       id="linearGradient3402"
       gradientUnits="userSpaceOnUse"
       spreadMethod="pad"
       x1="200"
       y1="117"
       x2="377"
       y2="175" />
    <defs
       id="defs1">
      <linearGradient
         spreadMethod="pad"
         id="linearGradient1"
         y2="175"
         y1="117"
         x2="377"
         gradientUnits="userSpaceOnUse"
         x1="200">
        <stop
           id="stop9"
           offset="0%"
           style="stop-opacity:1; stop-color:white;" />
        <stop
           id="stop11"
           offset="100%"
           style="stop-opacity:1; stop-color:rgb(255,255,204);" />
      </linearGradient>
      <clipPath
         id="clipPath1"
         clipPathUnits="userSpaceOnUse">
        <path
           id="path14"
           d="M0 0 L880 0 L880 666 L0 666 L0 0 Z" />
      </clipPath>
      <clipPath
         id="clipPath2"
         clipPathUnits="userSpaceOnUse">
        <path
           id="path17"
           d="M0 0 L660 0 L660 499.5 L0 499.5 L0 0 Z" />
      </clipPath>
      <clipPath
         id="clipPath3"
         clipPathUnits="userSpaceOnUse">
        <path
           id="path20"
           d="M-20 -27 L640 -27 L640 472.5 L-20 472.5 L-20 -27 Z" />
      </clipPath>
      <clipPath
         id="clipPath4"
         clipPathUnits="userSpaceOnUse">
        <path
           id="path23"
           d="M-5 -5 L655 -5 L655 494.5 L-5 494.5 L-5 -5 Z" />
      </clipPath>
      <clipPath
         id="clipPath5"
         clipPathUnits="userSpaceOnUse">
        <path
           id="path26"
           d="M-241.5 -133 L418.5 -133 L418.5 366.5 L-241.5 366.5 L-241.5 -133 Z" />
      </clipPath>
    </defs>
  </defs>
  <g
     id="g46"
     style="font-weight:bold;font-family:sans-serif;fill:#c0c0c0;fill-opacity:0.50199998;stroke:#c0c0c0;stroke-width:2;stroke-opacity:0.50199998;shape-rendering:crispEdges;text-rendering:geometricPrecision"
     transform="matrix(1.3333,0,0,1.3333,6.6665,6.6665)">
    <rect
       clip-path="url(#clipPath4)"
       id="rect48"
       height="57.1875"
       style="stroke:none"
       width="177"
       y="117"
       x="200" />
    <rect
       clip-path="url(#clipPath4)"
       id="rect50"
       height="57.1875"
       style="fill:none"
       width="177"
       y="117"
       x="200" />
  </g>
  <g
     id="g52"
     style="font-weight:bold;font-family:sans-serif;fill:url(#linearGradient3400);stroke:url(#linearGradient3402);stroke-width:2;shape-rendering:crispEdges;text-rendering:geometricPrecision"
     transform="scale(1.3333,1.3333)">
    <rect
       clip-path="url(#clipPath2)"
       id="rect54"
       height="57.1875"
       style="fill:url(#linearGradient3398);stroke:none"
       width="177"
       y="117"
       x="200" />
    <rect
       clip-path="url(#clipPath2)"
       id="rect56"
       height="57.1875"
       style="fill:none;stroke:#000000"
       width="177"
       y="117"
       x="200" />
  </g>
  <g
     id="g58"
     transform="scale(1.3333,1.3333)"
     style="font-weight:bold;font-family:sans-serif;text-rendering:optimizeLegibility">
    <line
       clip-path="url(#clipPath2)"
       id="line60"
       y2="147.1328"
       style="fill:none"
       y1="147.1328"
       x2="377"
       x1="200" />
    <line
       clip-path="url(#clipPath2)"
       id="line62"
       y2="139.1328"
       style="fill:none"
       y1="139.1328"
       x2="377"
       x1="200" />
  </g>
  <g
     id="g64"
     transform="matrix(1.3333,0,0,1.3333,321.99195,177.3289)"
     style="font-weight:bold;font-family:sans-serif;text-rendering:optimizeLegibility">
    <path
       inkscape:connector-curvature="0"
       clip-path="url(#clipPath5)"
       id="path66"
       style="stroke:none"
       d="m 1.084,0 0,-8.6719 3.2461,0 q 2.6426,0 2.6426,2.1504 0,0.8027 -0.4483,1.4619 -0.4482,0.6592 -1.2334,1.0108 L 8.127,0 5.9297,0 3.7793,-3.5449 l -0.9961,0 0,3.5449 z m 1.6992,-4.7344 0.416,0 q 1.9629,0 1.9629,-1.5879 0,-1.1601 -1.7519,-1.1601 l -0.627,0 z m 9.7324,4.043 q -0.8672,0.8379 -1.8574,0.8379 -0.8437,0 -1.3711,-0.5156 -0.5273,-0.5157 -0.5273,-1.336 0,-1.0664 0.8525,-1.6435 0.8525,-0.5772 2.4404,-0.5772 l 0.4629,0 0,-0.5859 q 0,-1.002 -1.1426,-1.002 -1.0136,0 -2.0507,0.5742 l 0,-1.1953 q 1.1777,-0.4453 2.332,-0.4453 2.5254,0 2.5254,2.0098 l 0,2.8476 q 0,0.7559 0.4863,0.7559 0.0879,0 0.2285,-0.0234 l 0.041,0.9726 q -0.5507,0.1641 -0.9726,0.1641 -1.0664,0 -1.3711,-0.8379 z m 0,-0.9316 0,-1.3067 -0.4101,0 q -1.6817,0 -1.6817,1.0547 0,0.3574 0.2432,0.6006 0.2432,0.2432 0.6006,0.2432 0.6094,0 1.248,-0.5918 z M 17.5547,0 l -1.7871,-6.4336 1.6113,0 1.2656,4.5059 1.3477,-4.5059 1.5,0 1.2129,4.5293 1.3652,-4.5293 1.207,0 L 23.3672,0 21.7031,0 20.5312,-4.4121 19.2188,0 Z m 11.3672,0 0,-7.4824 -3.1055,0 0,-1.1895 8.0215,0 0,1.1895 -3.1055,0 0,7.4824 z m 7.2656,0 -1.7871,-6.4336 1.6113,0 1.2656,4.5059 1.3477,-4.5059 1.5,0 1.2129,4.5293 1.3652,-4.5293 1.2071,0 L 42,0 40.3359,0 39.1641,-4.4121 37.8516,0 Z m 9.2168,0 0,-8.6719 1.8047,0 0,3.5215 3.5859,0 0,-3.5215 1.8047,0 0,8.6719 -1.8047,0 0,-3.9551 -3.5859,0 0,3.9551 z m 12.5156,-0.6914 q -0.8672,0.8379 -1.8574,0.8379 -0.8437,0 -1.3711,-0.5156 -0.5273,-0.5157 -0.5273,-1.336 0,-1.0664 0.8525,-1.6435 0.8525,-0.5772 2.4404,-0.5772 l 0.4629,0 0,-0.5859 q 0,-1.002 -1.1426,-1.002 -1.0136,0 -2.0507,0.5742 l 0,-1.1953 q 1.1777,-0.4453 2.332,-0.4453 2.5254,0 2.5254,2.0098 l 0,2.8476 q 0,0.7559 0.4863,0.7559 0.0879,0 0.2285,-0.0234 l 0.041,0.9726 q -0.5507,0.1641 -0.9726,0.1641 -1.0664,0 -1.3711,-0.8379 z m 0,-0.9316 0,-1.3067 -0.4101,0 q -1.6817,0 -1.6817,1.0547 0,0.3574 0.2432,0.6006 0.2432,0.2432 0.6006,0.2432 0.6093,0 1.248,-0.5918 z m 3.7324,1.4179 0,-1.2715 q 1.2891,0.5391 2.2032,0.5391 1.0664,0 1.0664,-0.7266 0,-0.4687 -0.8789,-0.8203 l -0.586,-0.2344 q -0.955,-0.3867 -1.3652,-0.832 -0.4102,-0.4453 -0.4102,-1.1015 0,-0.9141 0.6973,-1.4209 0.6973,-0.5069 1.9512,-0.5069 0.7851,0 1.8691,0.2285 l 0,1.2188 q -1.043,-0.3633 -1.7285,-0.3633 -1.0781,0 -1.0781,0.668 0,0.4394 0.7969,0.7441 l 0.5039,0.1934 q 1.1308,0.4277 1.5732,0.8672 0.4424,0.4394 0.4424,1.1308 0,0.9082 -0.7529,1.4737 -0.753,0.5654 -1.96,0.5654 -1.1602,0 -2.3438,-0.3516 z M 68.6074,0 l 0,-9.252 1.7344,0 0,4.0313 q 0.8496,-1.3594 2.1914,-1.3594 0.8613,0 1.3594,0.5449 0.498,0.545 0.498,1.4883 l 0,4.5469 -1.7344,0 0,-4.1191 q 0,-1.0957 -0.7265,-1.0957 -0.8262,0 -1.5879,1.166 l 0,4.0488 z m 11.1973,-0.0352 q -0.6211,0.1817 -0.9785,0.1817 -2.2559,0 -2.2559,-2.1094 l 0,-3.3867 -0.7207,0 0,-1.084 0.7207,0 0,-1.084 1.7344,-0.1992 0,1.2832 1.3769,0 0,1.084 -1.3769,0 0,3.1582 q 0,1.1836 0.9668,1.1836 0.2226,0 0.5332,-0.082 z m 4.6992,-0.6562 q -0.8672,0.8379 -1.8574,0.8379 -0.8438,0 -1.3711,-0.5156 -0.5274,-0.5157 -0.5274,-1.336 0,-1.0664 0.8526,-1.6435 0.8525,-0.5772 2.4404,-0.5772 l 0.4629,0 0,-0.5859 q 0,-1.002 -1.1426,-1.002 -1.0136,0 -2.0508,0.5742 l 0,-1.1953 q 1.1778,-0.4453 2.3321,-0.4453 2.5254,0 2.5254,2.0098 l 0,2.8476 q 0,0.7559 0.4863,0.7559 0.0879,0 0.2285,-0.0234 l 0.041,0.9726 q -0.5508,0.1641 -0.9726,0.1641 -1.0664,0 -1.3711,-0.8379 z m 0,-0.9316 0,-1.3067 -0.4101,0 q -1.6817,0 -1.6817,1.0547 0,0.3574 0.2432,0.6006 0.2431,0.2432 0.6006,0.2432 0.6093,0 1.248,-0.5918 z m 3.9492,3.621 0.1407,-1.2597 q 1.0722,0.4922 2.0449,0.4922 0.9609,0 1.3886,-0.4102 0.4278,-0.4101 0.4278,-1.3301 l 0,-0.8789 Q 91.8223,0 90.3633,0 89.2148,0 88.541,-0.8584 q -0.6738,-0.8584 -0.6738,-2.3232 0,-1.5411 0.7558,-2.4698 0.7559,-0.9287 2.0098,-0.9287 0.9844,0 1.8223,0.7969 l 0.1816,-0.6504 1.5586,0 0,4.9102 q 0,1.4707 -0.1787,2.1211 -0.1787,0.6503 -0.6943,1.1074 -0.8672,0.75 -2.4434,0.75 -1.1191,0 -2.4258,-0.4571 z m 4.002,-4.3945 0,-2.373 q -0.627,-0.709 -1.3125,-0.709 -0.6563,0 -1.043,0.5976 -0.3867,0.5977 -0.3867,1.6055 0,1.8867 1.2129,1.8867 0.8379,0 1.5293,-1.0078 z" />
  </g>
</svg>

<?xml version="1.0" encoding="UTF-8"?>
<!DOCTYPE svg PUBLIC '-//W3C//DTD SVG 1.0//EN'
          'http://www.w3.org/TR/2001/REC-SVG-20010904/DTD/svg10.dtd'>
<svg xmlns:xlink="http://www.w3.org/1999/xlink" style="fill-opacity:1; color-rendering:auto; color-interpolation:auto; stroke:black; text-rendering:auto; stroke-linecap:square; stroke-miterlimit:10; stroke-opacity:1; shape-rendering:auto; fill:black; stroke-dasharray:none; font-weight:normal; stroke-width:1; font-family:&apos;Dialog&apos;; font-style:normal; stroke-linejoin:miter; font-size:12; stroke-dashoffset:0; image-rendering:auto;" width="880" height="666" xmlns="http://www.w3.org/2000/svg"
><!--Generated by the Batik Graphics2D SVG Generator--><defs id="genericDefs"
  /><g
  ><defs id="defs1"
    ><linearGradient x1="200" gradientUnits="userSpaceOnUse" x2="377" y1="117" y2="175" id="linearGradient1" spreadMethod="pad"
      ><stop style="stop-opacity:1; stop-color:white;" offset="0%"
        /><stop style="stop-opacity:1; stop-color:rgb(255,255,204);" offset="100%"
      /></linearGradient
      ><clipPath clipPathUnits="userSpaceOnUse" id="clipPath1"
      ><path d="M0 0 L880 0 L880 666 L0 666 L0 0 Z"
      /></clipPath
      ><clipPath clipPathUnits="userSpaceOnUse" id="clipPath2"
      ><path d="M0 0 L660 0 L660 499.5 L0 499.5 L0 0 Z"
      /></clipPath
      ><clipPath clipPathUnits="userSpaceOnUse" id="clipPath3"
      ><path d="M-20 -27 L640 -27 L640 472.5 L-20 472.5 L-20 -27 Z"
      /></clipPath
      ><clipPath clipPathUnits="userSpaceOnUse" id="clipPath4"
      ><path d="M-5 -5 L655 -5 L655 494.5 L-5 494.5 L-5 -5 Z"
      /></clipPath
      ><clipPath clipPathUnits="userSpaceOnUse" id="clipPath5"
      ><path d="M-241.5 -133 L418.5 -133 L418.5 366.5 L-241.5 366.5 L-241.5 -133 Z"
      /></clipPath
    ></defs
    ><g style="fill:white; stroke:white;"
    ><rect x="0" y="0" width="880" style="clip-path:url(#clipPath1); stroke:none;" height="666"
    /></g
    ><g style="shape-rendering:crispEdges; text-rendering:geometricPrecision;" transform="scale(1.3333,1.3333)"
    ><rect x="10" y="10" width="640" style="fill:none; clip-path:url(#clipPath2);" height="480"
      /><line x1="60" x2="60" y1="11" style="clip-path:url(#clipPath2); fill:none; text-rendering:optimizeLegibility; shape-rendering:auto;" y2="24.1328"
      /><line x1="60" x2="50" y1="24.1328" style="clip-path:url(#clipPath2); fill:none; text-rendering:optimizeLegibility; shape-rendering:auto;" y2="34.1328"
      /><line x1="50" x2="10" y1="34.1328" style="clip-path:url(#clipPath2); fill:none; text-rendering:optimizeLegibility; shape-rendering:auto;" y2="34.1328"
    /></g
    ><g style="text-rendering:optimizeLegibility; font-family:sans-serif; font-weight:bold;" transform="matrix(1.3333,0,0,1.3333,0,0) translate(20,27)"
    ><path d="M1.084 2.3145 L1.084 -6.4336 L2.8184 -6.4336 L2.8184 -5.2207 Q3.4863 -6.5801 4.9219 -6.5801 Q6.082 -6.5801 6.7471 -5.7305 Q7.4121 -4.8809 7.4121 -3.3926 Q7.4121 -1.7754 6.6621 -0.8145 Q5.9121 0.1465 4.6523 0.1465 Q3.6387 0.1465 2.8184 -0.6504 L2.8184 2.3145 ZM2.8184 -1.6816 Q3.4512 -0.9785 4.166 -0.9785 Q4.8047 -0.9785 5.1855 -1.5967 Q5.5664 -2.2148 5.5664 -3.2461 Q5.5664 -5.2207 4.2949 -5.2207 Q3.5273 -5.2207 2.8184 -4.2305 ZM9.0352 0 L9.0352 -9.252 L10.7695 -9.252 L10.7695 -3.4336 L10.8809 -3.4336 L13.1719 -6.4336 L14.6133 -6.4336 L12.498 -3.6797 L15.2754 0 L13.166 0 L10.8809 -3.2168 L10.7695 -3.2168 L10.7695 0 ZM16.6758 1.998 L16.8164 0.7383 Q17.8887 1.2305 18.8613 1.2305 Q19.8223 1.2305 20.25 0.8203 Q20.6777 0.4102 20.6777 -0.5098 L20.6777 -1.3887 Q20.0449 0 18.5859 0 Q17.4375 0 16.7637 -0.8584 Q16.0898 -1.7168 16.0898 -3.1816 Q16.0898 -4.7227 16.8457 -5.6514 Q17.6016 -6.5801 18.8555 -6.5801 Q19.8398 -6.5801 20.6777 -5.7832 L20.8594 -6.4336 L22.418 -6.4336 L22.418 -1.5234 Q22.418 -0.0527 22.2393 0.5977 Q22.0605 1.248 21.5449 1.7051 Q20.6777 2.4551 19.1016 2.4551 Q17.9824 2.4551 16.6758 1.998 ZM20.6777 -2.3965 L20.6777 -4.7695 Q20.0508 -5.4785 19.3652 -5.4785 Q18.709 -5.4785 18.3223 -4.8809 Q17.9355 -4.2832 17.9355 -3.2754 Q17.9355 -1.3887 19.1484 -1.3887 Q19.9863 -1.3887 20.6777 -2.3965 Z" style="clip-path:url(#clipPath3); stroke:none;"
    /></g
    ><g transform="matrix(1.3333,0,0,1.3333,0,0) translate(5,5)" style="fill-opacity:0.502; fill:rgb(192,192,192); text-rendering:geometricPrecision; font-family:sans-serif; shape-rendering:crispEdges; stroke:rgb(192,192,192); font-weight:bold; stroke-width:2; stroke-opacity:0.502;"
    ><rect x="200" y="117" width="177" style="clip-path:url(#clipPath4); stroke:none;" height="57.1875"
      /><rect x="200" y="117" width="177" style="fill:none; clip-path:url(#clipPath4);" height="57.1875"
    /></g
    ><g transform="matrix(1.3333,0,0,1.3333,0,0)" style="fill:url(#linearGradient1); text-rendering:geometricPrecision; font-family:sans-serif; shape-rendering:crispEdges; stroke:url(#linearGradient1); font-weight:bold; stroke-width:2;"
    ><rect x="200" y="117" width="177" style="clip-path:url(#clipPath2); stroke:none;" height="57.1875"
      /><rect x="200" y="117" width="177" style="clip-path:url(#clipPath2); fill:none; stroke:black;" height="57.1875"
    /></g
    ><g style="text-rendering:optimizeLegibility; font-family:sans-serif; font-weight:bold;" transform="matrix(1.3333,0,0,1.3333,0,0)"
    ><line x1="200" x2="377" y1="147.1328" style="fill:none; clip-path:url(#clipPath2);" y2="147.1328"
      /><line x1="200" x2="377" y1="139.1328" style="fill:none; clip-path:url(#clipPath2);" y2="139.1328"
    /></g
    ><g style="text-rendering:optimizeLegibility; font-family:sans-serif; font-weight:bold;" transform="matrix(1.3333,0,0,1.3333,0,0) translate(241.5,133)"
    ><path d="M1.084 0 L1.084 -8.6719 L4.3301 -8.6719 Q6.9727 -8.6719 6.9727 -6.5215 Q6.9727 -5.7188 6.5244 -5.0596 Q6.0762 -4.4004 5.291 -4.0488 L8.127 0 L5.9297 0 L3.7793 -3.5449 L2.7832 -3.5449 L2.7832 0 ZM2.7832 -4.7344 L3.1992 -4.7344 Q5.1621 -4.7344 5.1621 -6.3223 Q5.1621 -7.4824 3.4102 -7.4824 L2.7832 -7.4824 ZM12.5156 -0.6914 Q11.6484 0.1465 10.6582 0.1465 Q9.8145 0.1465 9.2871 -0.3691 Q8.7598 -0.8848 8.7598 -1.7051 Q8.7598 -2.7715 9.6123 -3.3486 Q10.4648 -3.9258 12.0527 -3.9258 L12.5156 -3.9258 L12.5156 -4.5117 Q12.5156 -5.5137 11.373 -5.5137 Q10.3594 -5.5137 9.3223 -4.9395 L9.3223 -6.1348 Q10.5 -6.5801 11.6543 -6.5801 Q14.1797 -6.5801 14.1797 -4.5703 L14.1797 -1.7227 Q14.1797 -0.9668 14.666 -0.9668 Q14.7539 -0.9668 14.8945 -0.9902 L14.9355 -0.0176 Q14.3848 0.1465 13.9629 0.1465 Q12.8965 0.1465 12.5918 -0.6914 ZM12.5156 -1.623 L12.5156 -2.9297 L12.1055 -2.9297 Q10.4238 -2.9297 10.4238 -1.875 Q10.4238 -1.5176 10.667 -1.2744 Q10.9102 -1.0312 11.2676 -1.0312 Q11.877 -1.0312 12.5156 -1.623 ZM17.5547 0 L15.7676 -6.4336 L17.3789 -6.4336 L18.6445 -1.9277 L19.9922 -6.4336 L21.4922 -6.4336 L22.7051 -1.9043 L24.0703 -6.4336 L25.2773 -6.4336 L23.3672 0 L21.7031 0 L20.5312 -4.4121 L19.2188 0 ZM28.9219 0 L28.9219 -7.4824 L25.8164 -7.4824 L25.8164 -8.6719 L33.8379 -8.6719 L33.8379 -7.4824 L30.7324 -7.4824 L30.7324 0 ZM36.1875 0 L34.4004 -6.4336 L36.0117 -6.4336 L37.2773 -1.9277 L38.625 -6.4336 L40.125 -6.4336 L41.3379 -1.9043 L42.7031 -6.4336 L43.9102 -6.4336 L42 0 L40.3359 0 L39.1641 -4.4121 L37.8516 0 ZM45.4043 0 L45.4043 -8.6719 L47.209 -8.6719 L47.209 -5.1504 L50.7949 -5.1504 L50.7949 -8.6719 L52.5996 -8.6719 L52.5996 0 L50.7949 0 L50.7949 -3.9551 L47.209 -3.9551 L47.209 0 ZM57.9199 -0.6914 Q57.0527 0.1465 56.0625 0.1465 Q55.2188 0.1465 54.6914 -0.3691 Q54.1641 -0.8848 54.1641 -1.7051 Q54.1641 -2.7715 55.0166 -3.3486 Q55.8691 -3.9258 57.457 -3.9258 L57.9199 -3.9258 L57.9199 -4.5117 Q57.9199 -5.5137 56.7773 -5.5137 Q55.7637 -5.5137 54.7266 -4.9395 L54.7266 -6.1348 Q55.9043 -6.5801 57.0586 -6.5801 Q59.584 -6.5801 59.584 -4.5703 L59.584 -1.7227 Q59.584 -0.9668 60.0703 -0.9668 Q60.1582 -0.9668 60.2988 -0.9902 L60.3398 -0.0176 Q59.7891 0.1465 59.3672 0.1465 Q58.3008 0.1465 57.9961 -0.6914 ZM57.9199 -1.623 L57.9199 -2.9297 L57.5098 -2.9297 Q55.8281 -2.9297 55.8281 -1.875 Q55.8281 -1.5176 56.0713 -1.2744 Q56.3145 -1.0312 56.6719 -1.0312 Q57.2812 -1.0312 57.9199 -1.623 ZM61.6523 -0.2051 L61.6523 -1.4766 Q62.9414 -0.9375 63.8555 -0.9375 Q64.9219 -0.9375 64.9219 -1.6641 Q64.9219 -2.1328 64.043 -2.4844 L63.457 -2.7188 Q62.502 -3.1055 62.0918 -3.5508 Q61.6816 -3.9961 61.6816 -4.6523 Q61.6816 -5.5664 62.3789 -6.0732 Q63.0762 -6.5801 64.3301 -6.5801 Q65.1152 -6.5801 66.1992 -6.3516 L66.1992 -5.1328 Q65.1562 -5.4961 64.4707 -5.4961 Q63.3926 -5.4961 63.3926 -4.8281 Q63.3926 -4.3887 64.1895 -4.084 L64.6934 -3.8906 Q65.8242 -3.4629 66.2666 -3.0234 Q66.709 -2.584 66.709 -1.8926 Q66.709 -0.9844 65.9561 -0.4189 Q65.2031 0.1465 63.9961 0.1465 Q62.8359 0.1465 61.6523 -0.2051 ZM68.6074 0 L68.6074 -9.252 L70.3418 -9.252 L70.3418 -5.2207 Q71.1914 -6.5801 72.5332 -6.5801 Q73.3945 -6.5801 73.8926 -6.0352 Q74.3906 -5.4902 74.3906 -4.5469 L74.3906 0 L72.6562 0 L72.6562 -4.1191 Q72.6562 -5.2148 71.9297 -5.2148 Q71.1035 -5.2148 70.3418 -4.0488 L70.3418 0 ZM79.8047 -0.0352 Q79.1836 0.1465 78.8262 0.1465 Q76.5703 0.1465 76.5703 -1.9629 L76.5703 -5.3496 L75.8496 -5.3496 L75.8496 -6.4336 L76.5703 -6.4336 L76.5703 -7.5176 L78.3047 -7.7168 L78.3047 -6.4336 L79.6816 -6.4336 L79.6816 -5.3496 L78.3047 -5.3496 L78.3047 -2.1914 Q78.3047 -1.0078 79.2715 -1.0078 Q79.4941 -1.0078 79.8047 -1.0898 ZM84.5039 -0.6914 Q83.6367 0.1465 82.6465 0.1465 Q81.8027 0.1465 81.2754 -0.3691 Q80.748 -0.8848 80.748 -1.7051 Q80.748 -2.7715 81.6006 -3.3486 Q82.4531 -3.9258 84.041 -3.9258 L84.5039 -3.9258 L84.5039 -4.5117 Q84.5039 -5.5137 83.3613 -5.5137 Q82.3477 -5.5137 81.3105 -4.9395 L81.3105 -6.1348 Q82.4883 -6.5801 83.6426 -6.5801 Q86.168 -6.5801 86.168 -4.5703 L86.168 -1.7227 Q86.168 -0.9668 86.6543 -0.9668 Q86.7422 -0.9668 86.8828 -0.9902 L86.9238 -0.0176 Q86.373 0.1465 85.9512 0.1465 Q84.8848 0.1465 84.5801 -0.6914 ZM84.5039 -1.623 L84.5039 -2.9297 L84.0938 -2.9297 Q82.4121 -2.9297 82.4121 -1.875 Q82.4121 -1.5176 82.6553 -1.2744 Q82.8984 -1.0312 83.2559 -1.0312 Q83.8652 -1.0312 84.5039 -1.623 ZM88.4531 1.998 L88.5938 0.7383 Q89.666 1.2305 90.6387 1.2305 Q91.5996 1.2305 92.0273 0.8203 Q92.4551 0.4102 92.4551 -0.5098 L92.4551 -1.3887 Q91.8223 0 90.3633 0 Q89.2148 0 88.541 -0.8584 Q87.8672 -1.7168 87.8672 -3.1816 Q87.8672 -4.7227 88.623 -5.6514 Q89.3789 -6.5801 90.6328 -6.5801 Q91.6172 -6.5801 92.4551 -5.7832 L92.6367 -6.4336 L94.1953 -6.4336 L94.1953 -1.5234 Q94.1953 -0.0527 94.0166 0.5977 Q93.8379 1.248 93.3223 1.7051 Q92.4551 2.4551 90.8789 2.4551 Q89.7598 2.4551 88.4531 1.998 ZM92.4551 -2.3965 L92.4551 -4.7695 Q91.8281 -5.4785 91.1426 -5.4785 Q90.4863 -5.4785 90.0996 -4.8809 Q89.7129 -4.2832 89.7129 -3.2754 Q89.7129 -1.3887 90.9258 -1.3887 Q91.7637 -1.3887 92.4551 -2.3965 Z" style="clip-path:url(#clipPath5); stroke:none;"
    /></g
  ></g
></svg
>
